public/icons/tech-stack/postgresql.svg

<svg width="74" height="76" viewBox="0 0 74 76" fill="none" xmlns="http://www.w3.org/2000/svg">
<g clip-path="url(#clip0_34_392)">
<path d="M73.7132 45.5097C73.2695 44.1713 72.1072 43.2392 70.6041 43.0155C69.8953 42.9101 69.0836 42.955 68.1231 43.1522C66.4488 43.4962 65.2067 43.6272 64.3002 43.6526C67.7219 37.8993 70.5041 31.3385 72.1058 25.1627C74.6958 15.1765 73.3117 10.6271 71.6944 8.56935C67.4143 3.12268 61.1697 0.196678 53.6361 0.107148C49.6173 0.0582087 46.0893 0.848436 44.2488 1.41671C42.5353 1.11559 40.6928 0.947466 38.7595 0.916376C35.1356 0.8588 31.9336 1.64557 29.1976 3.26259C27.6829 2.75247 25.2519 2.03335 22.4446 1.57447C15.8418 0.494921 10.5202 1.3361 6.62764 4.07469C1.91419 7.39048 -0.270838 13.1515 0.133271 21.1977C0.261615 23.7524 1.69652 31.5251 3.95583 38.8965C5.2543 43.1335 6.63891 46.652 8.07122 49.3552C10.1025 53.1883 12.2759 55.4455 14.7159 56.2562C16.0834 56.7099 18.5682 57.0277 21.1816 54.86C21.5129 55.2595 21.9549 55.6565 22.5414 56.0253C23.2863 56.4931 24.1971 56.8754 25.1068 57.102C28.3851 57.9181 31.4558 57.714 34.0756 56.57C34.0918 57.034 34.1042 57.4774 34.1146 57.8602C34.1319 58.4812 34.1493 59.0901 34.1721 59.6595C34.3273 63.5096 34.5904 66.5032 35.3697 68.5978C35.4125 68.713 35.47 68.8886 35.5307 69.0749C35.9195 70.2603 36.5696 72.245 38.2236 73.7992C39.9363 75.4093 42.008 75.903 43.9054 75.903C44.857 75.903 45.765 75.7787 46.5613 75.6088C49.3999 75.0028 52.6238 74.0799 54.956 70.7728C57.161 67.6464 58.2328 62.9376 58.4268 55.5181C58.4519 55.3082 58.475 55.1078 58.4973 54.917L58.5435 54.5249L59.063 54.5704L59.1968 54.5793C62.088 54.7106 65.6233 54.1 67.7944 53.0956C69.51 52.3027 75.0077 49.4122 73.7132 45.5097Z" fill="white"/>
<path d="M68.7697 46.2684C60.173 48.0345 59.5819 45.1359 59.5819 45.1359C68.6584 31.7227 72.4529 14.6967 69.1787 10.5297C60.2455 -0.837224 44.7821 4.53863 44.524 4.67796L44.4411 4.69293C42.7425 4.34172 40.8419 4.13272 38.7055 4.09788C34.8158 4.03455 31.8651 5.11352 29.626 6.80452C29.626 6.80452 2.04079 -4.51315 3.32393 21.0384C3.59681 26.4741 11.1471 62.1685 20.1526 51.3872C23.4441 47.4447 26.6247 44.1113 26.6247 44.1113C28.2041 45.1563 30.0952 45.6895 32.0776 45.498L32.2316 45.3679C32.1836 45.8573 32.2056 46.336 32.2932 46.9029C29.9732 49.4843 30.6551 49.9374 26.0174 50.8883C21.3244 51.8515 24.0812 53.5661 25.8812 54.0146C28.0633 54.5579 33.1115 55.3276 36.5225 50.5722L36.3866 51.1148C37.2954 51.84 37.9337 55.8311 37.8267 59.4495C37.7198 63.0676 37.6484 65.5517 38.3644 67.492C39.081 69.4323 39.7947 73.7979 45.8916 72.497C50.9857 71.4097 53.6257 68.5922 53.9931 63.8923C54.2536 60.5512 54.8435 61.0452 54.8805 58.0579L55.3537 56.6438C55.8992 52.1146 55.4405 50.6534 58.5788 51.333L59.3419 51.3998C61.6515 51.5043 64.6751 51.0296 66.4497 50.2083C70.2705 48.4424 72.5368 45.4937 68.7691 46.2684H68.7697Z" fill="#336791"/>
<path d="M31.2407 23.4693C30.466 23.362 29.7645 23.4613 29.4095 23.729C29.2101 23.8796 29.1482 24.054 29.1314 24.1741C29.0869 24.4922 29.3107 24.844 29.4482 25.0253C29.8373 25.5389 30.4056 25.8918 30.9681 25.9696C31.0497 25.9811 31.1309 25.9863 31.2115 25.9863C32.1495 25.9863 33.0026 25.2588 33.0777 24.7219C33.1717 24.0494 32.1914 23.6009 31.2407 23.4693ZM56.9049 23.4907C56.8309 22.9635 55.8891 22.8133 54.9953 22.9371C54.1027 23.0608 53.2372 23.4622 53.3095 23.9904C53.3673 24.4012 54.1122 25.1025 54.9939 25.1025C55.0684 25.1025 55.1436 25.0976 55.2193 25.0869C55.8079 25.0058 56.2397 24.6335 56.445 24.4191C56.7571 24.092 56.9381 23.7276 56.9049 23.4907Z" fill="#C8E0FF"/>
<path d="M71.6303 46.0678C71.3025 45.0807 70.2474 44.7631 68.4945 45.1236C63.29 46.1933 61.4261 45.4523 60.8141 45.0035C64.8596 38.866 68.1876 31.4467 69.9829 24.5247C70.8333 21.2458 71.3031 18.2006 71.3415 15.7185C71.384 12.9943 70.918 10.9924 69.9572 9.76947C66.0832 4.83954 60.3973 2.19509 53.5147 2.12254C48.7831 2.06957 44.7853 3.2755 44.0104 3.61462C42.3783 3.21044 40.5991 2.96228 38.6621 2.93062C35.1101 2.87333 32.0397 3.72027 29.4977 5.44668C28.3935 5.03731 25.5398 4.06169 22.05 3.50177C16.0167 2.5345 11.2223 3.26744 7.80094 5.6813C3.71851 8.56181 1.83383 13.7108 2.19891 20.9849C2.32176 23.4322 3.72198 30.9608 5.93158 38.1707C8.84012 47.6604 12.0019 53.0325 15.3284 54.1376C15.7178 54.2669 16.1667 54.3573 16.6619 54.3573C17.8753 54.3573 19.3632 53.8126 20.9111 51.9593C22.7991 49.7036 24.7522 47.5027 26.7678 45.3593C28.0755 46.0583 29.5121 46.4487 30.9814 46.4878C30.9843 46.5261 30.9881 46.5644 30.9916 46.6024C30.7386 46.9028 30.491 47.2075 30.2487 47.5164C29.2306 48.8035 29.0187 49.0715 25.7416 49.7435C24.8094 49.9352 22.3336 50.4433 22.2971 52.1717C22.2578 54.0602 25.2239 54.8533 25.5618 54.9374C26.7395 55.231 27.874 55.3758 28.956 55.3758C31.5873 55.3758 33.903 54.5145 35.7536 52.8479C35.6966 59.5803 35.9785 66.2141 36.7902 68.2354C37.455 69.8901 39.079 73.9339 44.2087 73.9336C44.9614 73.9336 45.7898 73.8464 46.7012 73.6518C52.055 72.5089 54.3799 70.1523 55.2792 64.957C55.7605 62.1804 56.5863 55.5503 56.9748 51.9938C57.7946 52.2486 58.85 52.3652 59.9909 52.3649C62.3705 52.3649 65.1163 51.8614 66.8382 51.0654C68.7726 50.1707 72.2633 47.9753 71.6303 46.0678ZM58.8809 22.0357C58.8633 23.0856 58.7182 24.0388 58.5644 25.0337C58.3987 26.1037 58.2276 27.21 58.1845 28.553C58.1421 29.86 58.306 31.2187 58.4644 32.5329C58.7846 35.1871 59.1133 37.9197 57.8411 40.616C57.6298 40.2431 57.4416 39.8576 57.2775 39.4619C57.1193 39.0801 56.7759 38.4669 56.3004 37.6183C54.4507 34.3146 50.1191 26.5781 52.3365 23.4213C52.997 22.4816 54.6733 21.5155 58.8809 22.0357ZM53.7807 4.24853C59.9475 4.38412 64.8258 6.68168 68.2795 11.077C70.9284 14.4484 68.0115 29.7886 59.5671 43.0226C59.4822 42.9151 59.3968 42.8079 59.311 42.7011L59.2041 42.5681C61.3862 38.9791 60.9595 35.4281 60.5797 32.2799C60.4236 30.9879 60.2762 29.7675 60.3138 28.6212C60.3525 27.4064 60.5138 26.3642 60.6699 25.3567C60.8615 24.115 61.0567 22.8302 61.0029 21.3157C61.0431 21.1568 61.0593 20.9691 61.0382 20.7463C60.9009 19.2939 59.2359 14.9473 55.8423 11.0131C53.9859 8.86121 51.2788 6.4531 47.5826 4.82889C49.1724 4.50071 51.3465 4.19469 53.7807 4.24853ZM19.273 50.6028C17.5675 52.645 16.3899 52.2535 16.0025 52.1251C13.479 51.2868 10.5508 45.9748 7.96918 37.5515C5.7353 30.263 4.4299 22.9339 4.32641 20.8787C4.00035 14.379 5.58239 9.84921 9.02888 7.41491C14.6378 3.45369 23.8595 5.82466 27.565 7.02713C27.5118 7.07953 27.4563 7.12847 27.4037 7.18172C21.323 13.2974 21.4672 23.7463 21.4823 24.3851C21.4817 24.6315 21.5025 24.9804 21.5308 25.4603C21.6355 27.2178 21.8303 30.4887 21.31 34.1928C20.8267 37.635 21.8922 41.004 24.2327 43.4363C24.4729 43.6855 24.7254 43.9226 24.9892 44.1468C23.9474 45.258 21.6832 47.7153 19.273 50.6028ZM25.7708 41.9684C23.8844 40.008 23.0276 37.2812 23.4199 34.4865C23.9691 30.5736 23.7664 27.1657 23.6575 25.3348C23.6421 25.0786 23.6286 24.854 23.6208 24.677C24.509 23.8925 28.6256 21.696 31.5613 22.3659C32.9008 22.6713 33.7171 23.5799 34.0565 25.1425C35.8128 33.2327 34.2889 36.6047 33.0644 39.3145C32.8121 39.8727 32.5736 40.4003 32.3701 40.9462L32.2123 41.3682C31.8128 42.4351 31.4411 43.4271 31.2107 44.369C29.2052 44.3633 27.2543 43.51 25.7708 41.9681V41.9684ZM26.0787 52.879C25.493 52.7334 24.9663 52.4803 24.6573 52.2705C24.9155 52.1495 25.3748 51.9849 26.1714 51.8214C30.0267 51.0311 30.6221 50.4732 31.9223 48.8292C32.2204 48.452 32.5583 48.0248 33.0263 47.5043L33.0269 47.5038C33.7238 46.7265 34.0426 46.8583 34.6207 47.0973C35.0893 47.2901 35.5457 47.8751 35.7307 48.5188C35.8183 48.8228 35.9166 49.3997 35.5949 49.8488C32.8789 53.6362 28.921 53.5875 26.0787 52.879ZM46.2549 71.5773C41.5386 72.5838 39.8687 70.1872 38.7682 67.4474C38.058 65.6787 37.7088 57.7027 37.9565 48.8945C37.9597 48.7773 37.9429 48.6642 37.9106 48.5577C37.8816 48.3473 37.8376 48.1394 37.7788 47.9353C37.4105 46.6536 36.5129 45.5816 35.4362 45.1371C35.0084 44.9606 34.2233 44.6368 33.2798 44.8772C33.481 44.0515 33.8299 43.1191 34.2083 42.1095L34.3669 41.6849C34.5456 41.2061 34.7699 40.7101 35.0069 40.185C36.2883 37.35 38.0432 33.4668 36.1386 24.6943C35.4252 21.4084 33.0428 19.8038 29.4312 20.1766C27.2661 20.3997 25.2852 21.2696 24.2972 21.7685C24.0847 21.8756 23.8905 21.9793 23.7089 22.08C23.9847 18.7694 25.0265 12.5823 28.9236 8.66775C31.3775 6.20351 34.6453 4.98636 38.6269 5.052C46.472 5.17981 51.5029 9.18939 54.342 12.5308C56.7887 15.4099 58.1134 18.3103 58.6421 19.8746C54.6661 19.4718 51.9619 20.2534 50.5912 22.2053C47.6089 26.4509 52.2226 34.6911 54.44 38.6515C54.8467 39.3772 55.1977 40.0045 55.3081 40.2711C56.0302 42.0139 56.965 43.1775 57.6475 44.0268C57.8567 44.287 58.0597 44.5395 58.214 44.76C57.0098 45.1057 54.8467 45.9046 55.0439 49.8978C54.8849 51.9014 53.7544 61.2822 53.18 64.5966C52.4218 68.9752 50.8039 70.606 46.2549 71.5776V71.5773ZM65.9412 49.1412C64.7098 49.7104 62.6491 50.1373 60.6916 50.2291C58.5294 50.3299 57.4286 49.9879 57.1696 49.7774C57.0482 47.289 57.9781 47.029 58.9624 46.7538C59.1171 46.7107 59.2679 46.6683 59.4136 46.6177C59.5041 46.6911 59.6033 46.7639 59.7119 46.8353C61.4498 47.9776 64.5494 48.1008 68.9255 47.2012L68.9735 47.1917C68.3832 47.7413 67.3733 48.4788 65.9412 49.1412Z" fill="#C8E0FF"/>
</g>
<defs>
<clipPath id="clip0_34_392">
<rect width="74" height="76" fill="white"/>
</clipPath>
</defs>
</svg>

<svg xmlns="http://www.w3.org/2000/svg" width="74" height="76" fill="none" xmlns:v="https://vecta.io/nano"><g clip-path="url(#A)"><path d="M73.713 45.51c-.444-1.338-1.606-2.271-3.109-2.494-.709-.105-1.52-.061-2.481.137-1.674.344-2.916.475-3.823.5 3.422-5.753 6.204-12.314 7.806-18.49 2.59-9.986 1.206-14.536-.411-16.593C67.414 3.123 61.17.197 53.636.107c-4.019-.049-7.547.741-9.387 1.31-1.714-.301-3.556-.469-5.489-.5-3.624-.058-6.826.729-9.562 2.346-1.515-.51-3.946-1.229-6.753-1.688-6.603-1.08-11.924-.238-15.817 2.5C1.914 7.39-.271 13.152.133 21.198c.128 2.555 1.563 10.327 3.823 17.699 1.298 4.237 2.683 7.755 4.115 10.459 2.031 3.833 4.205 6.09 6.645 6.901 1.368.454 3.852.772 6.466-1.396.331.4.773.797 1.36 1.165.745.468 1.656.85 2.565 1.077 3.278.816 6.349.612 8.969-.532l.039 1.29.057 1.799c.155 3.85.418 6.844 1.198 8.938.043.115.1.291.161.477.389 1.185 1.039 3.17 2.693 4.724 1.713 1.61 3.784 2.104 5.682 2.104.952 0 1.86-.124 2.656-.294 2.839-.606 6.063-1.529 8.395-4.836 2.205-3.126 3.277-7.835 3.471-15.255l.071-.601.046-.392.52.045.134.009c2.891.131 6.426-.479 8.598-1.484 1.716-.793 7.213-3.683 5.919-7.586z" fill="#fff"/><path d="M68.77 46.268c-8.597 1.766-9.188-1.133-9.188-1.133 9.077-13.413 12.871-30.439 9.597-34.606C60.246-.837 44.782 4.539 44.524 4.678l-.083.015c-1.699-.351-3.599-.56-5.736-.595-3.89-.063-6.84 1.016-9.079 2.707 0 0-27.585-11.318-26.302 14.234.273 5.436 7.823 41.13 16.829 30.349 3.291-3.943 6.472-7.276 6.472-7.276 1.579 1.045 3.47 1.578 5.453 1.387l.154-.13c-.048.489-.026.968.062 1.535-2.32 2.581-1.638 3.034-6.276 3.985-4.693.963-1.936 2.678-.136 3.126 2.182.543 7.23 1.313 10.641-3.442l-.136.543c.909.725 1.547 4.716 1.44 8.335s-.178 6.102.538 8.043 1.43 6.306 7.527 5.005c5.094-1.087 7.734-3.905 8.102-8.605.261-3.341.85-2.847.887-5.834l.473-1.414c.545-4.529.087-5.99 3.225-5.311l.763.067c2.31.105 5.333-.37 7.108-1.191 3.821-1.766 6.087-4.715 2.319-3.94h.001z" fill="#336791"/><g fill="#c8e0ff"><path d="M31.241 23.469c-.775-.107-1.476-.008-1.831.26-.199.151-.261.325-.278.445-.044.318.179.67.317.851.389.514.957.866 1.52.944a1.74 1.74 0 0 0 .243.017c.938 0 1.791-.727 1.866-1.264.094-.673-.886-1.121-1.837-1.253zm25.664.021c-.074-.527-1.016-.677-1.91-.554s-1.758.525-1.686 1.053c.058.411.803 1.112 1.684 1.112a1.61 1.61 0 0 0 .225-.016c.589-.081 1.02-.453 1.226-.668.312-.327.493-.692.46-.928zM71.63 46.068c-.328-.987-1.383-1.305-3.136-.944-5.205 1.07-7.068.329-7.68-.12 4.045-6.138 7.374-13.557 9.169-20.479.85-3.279 1.32-6.324 1.359-8.806.043-2.724-.423-4.726-1.384-5.949-3.874-4.93-9.56-7.574-16.443-7.647-4.732-.053-8.729 1.153-9.504 1.492-1.632-.404-3.411-.652-5.348-.684-3.552-.057-6.622.79-9.164 2.516-1.104-.409-3.958-1.385-7.448-1.945-6.033-.967-10.828-.234-14.249 2.18C3.72 8.563 1.835 13.712 2.2 20.986c.123 2.447 1.523 9.976 3.733 17.186 2.909 9.49 6.07 14.862 9.397 15.967.389.129.838.22 1.333.22 1.213 0 2.701-.545 4.249-2.398a152.72 152.72 0 0 1 5.857-6.6c1.308.699 2.744 1.089 4.214 1.129l.01.115c-.253.3-.501.605-.743.914-1.018 1.287-1.23 1.555-4.507 2.227-.932.192-3.408.7-3.444 2.428-.039 1.889 2.927 2.682 3.265 2.766 1.178.294 2.312.438 3.394.438 2.631 0 4.947-.861 6.798-2.528-.057 6.732.225 13.366 1.037 15.387.665 1.655 2.289 5.698 7.419 5.698.753 0 1.581-.087 2.492-.282 5.354-1.143 7.679-3.499 8.578-8.695.481-2.777 1.307-9.407 1.696-12.963.82.255 1.875.371 3.016.371 2.38 0 5.125-.503 6.847-1.3 1.934-.895 5.425-3.09 4.792-4.998zM58.881 22.036c-.018 1.05-.163 2.003-.316 2.998-.166 1.07-.337 2.176-.38 3.519-.042 1.307.121 2.666.28 3.98.32 2.654.649 5.387-.623 8.083a10.5 10.5 0 0 1-.564-1.154c-.158-.382-.502-.995-.977-1.844-1.85-3.304-6.181-11.04-3.964-14.197.66-.94 2.337-1.906 6.544-1.386zm-5.1-17.787c6.167.136 11.045 2.433 14.499 6.828 2.649 3.371-.268 18.712-8.712 31.946l-.256-.322-.107-.133c2.182-3.589 1.755-7.14 1.376-10.288-.156-1.292-.303-2.512-.266-3.659.039-1.215.2-2.257.356-3.265.192-1.242.387-2.526.333-4.041.04-.159.056-.347.035-.569-.137-1.452-1.802-5.799-5.196-9.733-1.856-2.152-4.564-4.56-8.26-6.184 1.59-.328 3.764-.634 6.198-.58zM19.273 50.603c-1.706 2.042-2.883 1.651-3.27 1.522-2.524-.838-5.452-6.15-8.033-14.574-2.234-7.288-3.539-14.618-3.643-16.673C4 14.379 5.582 9.849 9.029 7.415c5.609-3.961 14.831-1.59 18.536-.388l-.161.155c-6.081 6.116-5.937 16.565-5.921 17.203-.001.246.02.595.049 1.075.105 1.758.3 5.028-.221 8.732-.483 3.442.582 6.811 2.923 9.244a10.45 10.45 0 0 0 .756.71 155.83 155.83 0 0 0-5.716 6.456zm6.498-8.634c-1.886-1.96-2.743-4.687-2.351-7.482.549-3.913.347-7.321.238-9.152l-.037-.658c.888-.785 5.005-2.981 7.941-2.311 1.339.305 2.156 1.214 2.495 2.777 1.756 8.09.232 11.462-.992 14.172-.252.558-.491 1.086-.694 1.632l-.158.422c-.399 1.067-.771 2.059-1.002 3.001-2.005-.006-3.956-.859-5.44-2.401h0zm.308 10.911a4.72 4.72 0 0 1-1.421-.608c.258-.121.718-.286 1.514-.449 3.855-.79 4.451-1.348 5.751-2.992.298-.377.636-.804 1.104-1.325h.001c.697-.777 1.016-.645 1.594-.407.469.193.925.778 1.11 1.422.088.304.186.881-.136 1.33-2.716 3.787-6.674 3.739-9.516 3.03zm20.176 18.698c-4.716 1.007-6.386-1.39-7.487-4.13-.71-1.769-1.059-9.745-.812-18.553a1.06 1.06 0 0 0-.046-.337 4.41 4.41 0 0 0-.132-.622c-.368-1.282-1.266-2.354-2.343-2.798-.428-.176-1.213-.5-2.156-.26.201-.826.55-1.758.928-2.768l.159-.425c.179-.479.403-.975.64-1.5 1.281-2.835 3.036-6.718 1.132-15.491-.713-3.286-3.096-4.89-6.707-4.518-2.165.223-4.146 1.093-5.134 1.592a16.76 16.76 0 0 0-.588.311c.276-3.311 1.318-9.498 5.215-13.412 2.454-2.464 5.722-3.681 9.703-3.616 7.845.128 12.876 4.137 15.715 7.479 2.447 2.879 3.771 5.78 4.3 7.344-3.976-.403-6.68.379-8.051 2.331-2.982 4.246 1.631 12.486 3.849 16.446.407.726.758 1.353.868 1.62.722 1.743 1.657 2.906 2.339 3.756a14.89 14.89 0 0 1 .566.733c-1.204.346-3.367 1.145-3.17 5.138-.159 2.004-1.29 11.384-1.864 14.699-.758 4.379-2.376 6.009-6.925 6.981h0zm19.686-22.436c-1.231.569-3.292.996-5.25 1.088-2.162.101-3.263-.241-3.522-.452-.121-2.488.808-2.748 1.793-3.024a7.57 7.57 0 0 0 .451-.136 3.7 3.7 0 0 0 .298.218c1.738 1.142 4.838 1.266 9.214.366l.048-.01c-.59.55-1.6 1.287-3.032 1.95z"/></g></g><defs><clipPath id="A"><path fill="#fff" d="M0 0h74v76H0z"/></clipPath></defs></svg>
